!!!ONB: MCCC : IJB0064_02 : Extracted Monophonic Melody
!!!COM: Bach, Johann Sebastian
!!!OPR: Cello Suite No.2
!!!OMV: 2
!!!SCT: BWV 1008
!!!ODT: 1717///
**kern
*thru
*staff1
*IP1
*clefF4
*k[b-]
*d:
*M4/4
*>A
16A
=1
8A
16B-
16A
16G
16F
16E
16D
16D
16C#
16D
16E
8AA
16BB-
16GG
=2
16FF
16AA
16D
16FF
8EE
8C#
8.D
16E
16F
16G
16A
16B-
=3
8c
16d
16e-
16d
16c
16B-
16A
16c
16B-
16A
16G
8.d
16F
=4
16E
16G
16B-
16d
16c
16B-
16A
16G
16B-
16A
16G
16F
8.A
16A
=5
16B
16F
16E
16D
16E
16c#
16d
16c#
8.d
16e
16f
16e
16d
16e
=6
16d
16c
16B
16c
16B
16A
16G#
16A
8G#
16F#
16E
16e
16c
16A
16G
=7
16e
16A
16F
16D
16D
16F
16D
16BB
16GG#
16BB
16E
16G#
16B
16d
16c
16B
=8
16c
16A
16F
16E
16D
16F
16E
16D
8.G#
16A
16B
16d
16E
16D
=9
16C
16E
16A
16d
8.B
16A
[8A
32A]
32E
32F#
32G#
32A
32B
32c
32d
32c
32B
32c
32A
=10
16D
16G#
16A
16B
16A
16G#
16F#
16E
8A
16F
16E
16D
16C
16BB
16AA
=11
8B
16E
16F
16E
16D
16C
16BB
16d
16B
16c
16A
8E
8G#
=12
8.AA
16C#
16E
16G
16F
16E
16F
16A
16d
16G#
8.A
*>A
16A
=1
8A
16B-
16A
16G
16F
16E
16D
16D
16C#
16D
16E
8AA
16BB-
16GG
=2
16FF
16AA
16D
16FF
8EE
8C#
8.D
16E
16F
16G
16A
16B-
=3
8c
16d
16e-
16d
16c
16B-
16A
16c
16B-
16A
16G
8.d
16F
=4
16E
16G
16B-
16d
16c
16B-
16A
16G
16B-
16A
16G
16F
8.A
16A
=5
16B
16F
16E
16D
16E
16c#
16d
16c#
8.d
16e
16f
16e
16d
16e
=6
16d
16c
16B
16c
16B
16A
16G#
16A
8G#
16F#
16E
16e
16c
16A
16G
=7
16e
16A
16F
16D
16D
16F
16D
16BB
16GG#
16BB
16E
16G#
16B
16d
16c
16B
=8
16c
16A
16F
16E
16D
16F
16E
16D
8.G#
16A
16B
16d
16E
16D
=9
16C
16E
16A
16d
8.B
16A
[8A
32A]
32E
32F#
32G#
32A
32B
32c
32d
32c
32B
32c
32A
=10
16D
16G#
16A
16B
16A
16G#
16F#
16E
8A
16F
16E
16D
16C
16BB
16AA
=11
8B
16E
16F
16E
16D
16C
16BB
16d
16B
16c
16A
8E
8G#
=12
8.AA
16C#
16E
16G
16F
16E
16F
16A
16d
16G#
8.A
*>B
16E
=14
8.c#
16F
16G
16E
16F
16A
16C#
16D
16E
16BB-
8.AA
16GG
=15
16FF
16A
16F
16D
16G
16BB
16C#
16A
16G
16F
16E
16D
16F#
16D
16E-
16C
=16
16BB-
16G
16AA
16GG
16FF#
16AA
16D
16c
16B-
16F#
16G
16B-
16d
16A
16B-
16G
=17
16E-
16D
16E-
16G
16c
16A
16B-
16G
16D
16C
16D
16G
16B-
16F#
16G
16E-
=18
16C
16BB-
16C
16B-
16A
16c
16e-
16G
8F#
16G
16A
8D
16E-
16C
=19
16BB-
16D
16G
16BB-
8DD
8F#
8.G
16A
16B-
16d
16G
16F
=20
8.E
16F
16G
16E
16C
16BB-
16AA
16F
16GG
16FF
16EE
16G
16A
16B-
=21
16B-
16A
16G
16F
16A
16E
16F
16D
16BB-
16D
16F
16A
16d
16A
16B-
16G
=22
16AA
16G
16c#
16d
16e
16G
16A
16E
16F
16D
16BB-
16D
16GG#
16F
16E
16D
=23
16D
16C#
16BB
16AA
16C
16AA
16FF#
16D
16C
16AA
16BB
16D
16F
16D
16GG#
16D
=24
16C#
16E
16G
16B-
16e
16A
16B-
16G
16F
16C#
16D
16GG#
8AA
8C#
=25
16DD
16d
16c
16A
16B-
16G
16E
16c#
16d
16A
16F
16D
8.DD
*>B
16E
=14
8.c#
16F
16G
16E
16F
16A
16C#
16D
16E
16BB-
8.AA
16GG
=15
16FF
16A
16F
16D
16G
16BB
16C#
16A
16G
16F
16E
16D
16F#
16D
16E-
16C
=16
16BB-
16G
16AA
16GG
16FF#
16AA
16D
16c
16B-
16F#
16G
16B-
16d
16A
16B-
16G
=17
16E-
16D
16E-
16G
16c
16A
16B-
16G
16D
16C
16D
16G
16B-
16F#
16G
16E-
=18
16C
16BB-
16C
16B-
16A
16c
16e-
16G
8F#
16G
16A
8D
16E-
16C
=19
16BB-
16D
16G
16BB-
8DD
8F#
8.G
16A
16B-
16d
16G
16F
=20
8.E
16F
16G
16E
16C
16BB-
16AA
16F
16GG
16FF
16EE
16G
16A
16B-
=21
16B-
16A
16G
16F
16A
16E
16F
16D
16BB-
16D
16F
16A
16d
16A
16B-
16G
=22
16AA
16G
16c#
16d
16e
16G
16A
16E
16F
16D
16BB-
16D
16GG#
16F
16E
16D
=23
16D
16C#
16BB
16AA
16C
16AA
16FF#
16D
16C
16AA
16BB
16D
16F
16D
16GG#
16D
=24
16C#
16E
16G
16B-
16e
16A
16B-
16G
16F
16C#
16D
16GG#
8AA
8C#
=25
16DD
16d
16c
16A
16B-
16G
16E
16c#
16d
16A
16F
16D
8.DD
==
*-
